X:1775
L:1/8
Q:1/4=150
M:2/2
K:G
 G2 B2 B2 AG | AB d2 c4 | Bc d2 [ce]2 cB | AGFE D4 | Ac d2 d2 cB | cd e2 ef g2 | d2 cB cBAG | 
 D2 F2 G4 :: g2 d2 d2 cB | g2 d2 c4 | e2 c2 edcB | AGFE D4 | GABG ABcA | BcdB cded | c2 g2 A2 B2 | 
 D2 F2 G4 :|

